Dominus_Funeral/22/places/folder-image-people.svg

<svg xmlns="http://www.w3.org/2000/svg" width="24" height="24" viewBox="0 0 12.7 12.7"><defs><linearGradient id="a"><stop offset="0" stop-color="#216778"/><stop offset="1" stop-color="#5fbcd3"/></linearGradient></defs><path d="M1.347 12.24h9.15l-.29-2.214c0-.218-.255-.4-.618-.58a2.414 2.414 0 0 0 1.017-1.508l.49.073a.236.236 0 0 0 .254-.272l-.381-1.816a.236.236 0 0 0-.418-.072L9.59 7.448a.236.236 0 0 0 .145.345l.436.073a1.815 1.815 0 0 1-.164.436 1.942 1.942 0 0 1-.925.907c-.69-.29-1.507-.58-1.943-.962-.054-.363-.036-.726 0-1.09.309-.362.636-.762.708-.98.272-1.198.272-1.633.29-2.087 0-.218-.036-.418-.108-.617a1.852 1.852 0 0 0 .599-.382h.018l.109-.108.036-.055.09-.127.055-.073c.182-.29.29-.617.345-.998.055-.58-.036-1.071-.036-1.09a.236.236 0 0 0-.236-.18.236.236 0 0 0-.182.126c-.018 0-.363.726-.962 1.162a2.16 2.16 0 0 1-.072.055l-.055.054a2.16 2.16 0 0 1-.127.073 1.525 1.525 0 0 1-.472.163.49.49 0 0 0-.254.145 2.342 2.342 0 0 0-1.997.018.49.49 0 0 0-.29-.163 1.543 1.543 0 0 1-.472-.181 1.997 1.997 0 0 1-.091-.055c-.036 0-.055-.036-.09-.054a1.997 1.997 0 0 1-.055-.037c-.6-.435-.944-1.162-.944-1.18a.236.236 0 0 0-.436.055c0 .018-.109.508-.036 1.089.054.363.163.708.327.98l.09.127.055.091.09.09.073.073c.127.128.272.236.436.31a.98.98 0 0 0 .236.09c-.055.181-.091.4-.091.599 0 .436.054.926.29 2.088.073.181.4.544.708.89.055.38.073.743 0 1.18-.435.725-3.086 1.034-3.067 1.778z" fill="#1a1a1a"/></svg>

<?xml version="1.0" encoding="UTF-8" standalone="no"?>
<svg
   xmlns:dc="http://purl.org/dc/elements/1.1/"
   xmlns:cc="http://creativecommons.org/ns#"
   xmlns:rdf="http://www.w3.org/1999/02/22-rdf-syntax-ns#"
   xmlns:svg="http://www.w3.org/2000/svg"
   xmlns="http://www.w3.org/2000/svg"
   xmlns:sodipodi="http://sodipodi.sourceforge.net/DTD/sodipodi-0.dtd"
   xmlns:inkscape="http://www.inkscape.org/namespaces/inkscape"
   width="24"
   height="24"
   viewBox="0 0 12.7 12.7"
   version="1.1"
   id="svg11"
   sodipodi:docname="folder-image-people.svg"
   inkscape:version="0.92.4 (5da689c313, 2019-01-14)">
  <metadata
     id="metadata15">
    <rdf:RDF>
      <cc:Work
         rdf:about="">
        <dc:format>image/svg+xml</dc:format>
        <dc:type
           rdf:resource="http://purl.org/dc/dcmitype/StillImage" />
        <dc:title></dc:title>
      </cc:Work>
    </rdf:RDF>
  </metadata>
  <sodipodi:namedview
     pagecolor="#ffffff"
     bordercolor="#666666"
     borderopacity="1"
     objecttolerance="10"
     gridtolerance="10"
     guidetolerance="10"
     inkscape:pageopacity="0"
     inkscape:pageshadow="2"
     inkscape:window-width="1112"
     inkscape:window-height="480"
     id="namedview13"
     showgrid="false"
     inkscape:zoom="9.8333333"
     inkscape:cx="1.0677966"
     inkscape:cy="12"
     inkscape:window-x="0"
     inkscape:window-y="25"
     inkscape:window-maximized="0"
     inkscape:current-layer="svg11" />
  <defs
     id="defs7">
    <linearGradient
       id="a">
      <stop
         offset="0"
         stop-color="#216778"
         id="stop2" />
      <stop
         offset="1"
         stop-color="#5fbcd3"
         id="stop4" />
    </linearGradient>
  </defs>
  <path
     d="m 1.347,12.24 h 9.15 l -0.29,-2.214 c 0,-0.218 -0.255,-0.4 -0.618,-0.58 a 2.414,2.414 0 0 0 1.017,-1.508 l 0.49,0.073 A 0.236,0.236 0 0 0 11.35,7.739 L 10.969,5.923 A 0.236,0.236 0 0 0 10.551,5.851 L 9.59,7.448 a 0.236,0.236 0 0 0 0.145,0.345 l 0.436,0.073 A 1.815,1.815 0 0 1 10.007,8.302 1.942,1.942 0 0 1 9.082,9.209 C 8.392,8.919 7.575,8.629 7.139,8.247 7.085,7.884 7.103,7.521 7.139,7.157 7.448,6.795 7.775,6.395 7.847,6.177 8.119,4.979 8.119,4.544 8.137,4.09 8.137,3.872 8.101,3.672 8.029,3.473 A 1.852,1.852 0 0 0 8.628,3.091 H 8.646 L 8.755,2.983 8.791,2.928 8.881,2.801 8.936,2.728 C 9.118,2.438 9.226,2.111 9.281,1.73 9.336,1.15 9.245,0.659 9.245,0.64 A 0.236,0.236 0 0 0 9.009,0.46 0.236,0.236 0 0 0 8.827,0.586 c -0.018,0 -0.363,0.726 -0.962,1.162 A 2.16,2.16 0 0 1 7.793,1.803 L 7.738,1.857 A 2.16,2.16 0 0 1 7.611,1.93 1.525,1.525 0 0 1 7.139,2.093 0.49,0.49 0 0 0 6.885,2.238 2.342,2.342 0 0 0 4.888,2.256 0.49,0.49 0 0 0 4.598,2.093 1.543,1.543 0 0 1 4.126,1.912 1.997,1.997 0 0 1 4.035,1.857 C 3.999,1.857 3.98,1.821 3.945,1.803 A 1.997,1.997 0 0 1 3.89,1.766 C 3.29,1.331 2.946,0.604 2.946,0.586 A 0.236,0.236 0 0 0 2.51,0.641 c 0,0.018 -0.109,0.508 -0.036,1.089 0.054,0.363 0.163,0.708 0.327,0.98 l 0.09,0.127 0.055,0.091 0.09,0.09 0.073,0.073 c 0.127,0.128 0.272,0.236 0.436,0.31 a 0.98,0.98 0 0 0 0.236,0.09 C 3.726,3.672 3.69,3.891 3.69,4.09 c 0,0.436 0.054,0.926 0.29,2.088 0.073,0.181 0.4,0.544 0.708,0.89 0.055,0.38 0.073,0.743 0,1.18 -0.435,0.725 -3.086,1.034 -3.067,1.778 z"
     id="path9"
     inkscape:connector-curvature="0"
     style="fill:#1a1a1a" />
</svg>
